X:2312
T:Marsch från Värmland
S:Efter David Bastviken
Z:[[http://www.bluerose.karenlmyers.org/IncipitsGanglat6.html|Karen Myers (#2312)]]
Z:Upptecknad 2/1997
M:2/4
L:1/16
R:Gånglåt
O:Värmland
K:D
A2f2 f2ef | agfg e2>c2 | ABcd e2fe | d2BG ABA2 |
A2f2 f2ef | agfg e2>c2 | ABcd e2fe | d2f2 d4 :|
|: A2FA d2d2 | B2GB e2>d2 | c2b2 a2>g2 | fgef d4 |
A2FA d2d2 | B2GB e2>d2 | c2b2 a2>f2 | d2f2 d4 :|
